X:612
T:Gathering of Peascods 1665.
C:John Malchair's Third Collection of Tunes
F:https://www.vwml.org/record/Malchair/3619/p61
F:www.vwml.org/topics/historic-dance-and-tune-books/Malchair
Z:Eric Conrad Feb 2020
M:C|
L:1/4
K:G
d2dd | B>cdd | edcB | A3B | AGGF | G3 ||
D | FDFG | A2BA | G/A/BAG | F3F | EDE>D | D3 ||
d | BGGA/B/ | c3c | BGGA/B/ | c3d | BGGA/B/ | c>ded/c/ |
Bc/B/A>G | G3 |]


